X:101
T:Father Kelly's No. 2
Z: id:dc-reel-93
M:C
L:1/8
K:G Major
BddB cBAF|G2BG DGBG|A3B cBAG|EAAG ABcA|!
d2Bd cBAF|G2BG DGBG|A3B cdef|gedc BGG2:|!
dggf gfed|eaag ageg|fdad bdad|gfge dcBc|!
dggf gfed|eaag agef|g3e dcBc|dBcA BGG2:|!

